hello-world/src/main/templates/app.svg

<?xml version="1.0" encoding="UTF-8" standalone="no"?>
<!DOCTYPE svg PUBLIC "-//W3C//DTD SVG 1.1//EN" "http://www.w3.org/Graphics/SVG/1.1/DTD/svg11.dtd">
<svg width="100%" height="100%" viewBox="0 0 24 24" version="1.1" xmlns="http://www.w3.org/2000/svg" xmlns:xlink="http://www.w3.org/1999/xlink" xml:space="preserve" xmlns:serif="http://www.serif.com/" style="fill-rule:evenodd;clip-rule:evenodd;stroke-linejoin:round;stroke-miterlimit:2;">
    <rect x="0" y="0" width="24" height="24" style="fill:none;fill-rule:nonzero;"/>
    <g transform="matrix(1.11943,0,0,1.41135,-0.985693,-1.41653)">
        <path d="M21.427,5.609C21.427,3.458 19.225,1.712 16.513,1.712L6.687,1.712C3.975,1.712 1.774,3.458 1.774,5.609L1.774,13.403C1.774,15.554 3.975,17.3 6.687,17.3L16.513,17.3C19.225,17.3 21.427,15.554 21.427,13.403L21.427,5.609Z" style="fill:rgb(192,192,192);"/>
    </g>
    <g transform="matrix(0.8,0,0,0.8,2.4,2.4)">
        <path d="M20,2L4,2C2.9,2 2.01,2.9 2.01,4L2,22L6,18L20,18C21.1,18 22,17.1 22,16L22,4C22,2.9 21.1,2 20,2ZM6,9L18,9L18,11L6,11L6,9ZM14,14L6,14L6,12L14,12L14,14ZM18,8L6,8L6,6L18,6L18,8Z" style="fill:white;fill-rule:nonzero;"/>
    </g>
</svg>

<svg xmlns="http://www.w3.org/2000/svg" viewBox="0 0 24 24" fill="white" width="24px" height="24px"><path d="M0 0h24v24H0z" fill="none"/><path d="M20 2H4c-1.1 0-1.99.9-1.99 2L2 22l4-4h14c1.1 0 2-.9 2-2V4c0-1.1-.9-2-2-2zM6 9h12v2H6V9zm8 5H6v-2h8v2zm4-6H6V6h12v2z"/></svg>
